X: 99
T:Reel des temps Dull
R:reel
S:from Nathan Curry manuscript
Z:added by Alf 
M:4/4
L:1/8
K:G
DG|B2GB c2Bc|ded/2c/2B G2AB|cBAG FDEF|GABc d2DG|
B2GB c2Bc|ded/2c/2B G2AB|cBAG FDEF|G2GG [G2B2]DG:|
ef|gagf e2g/2f/2e|dedB G2AB|cBAG FDEF|GABc d2ef|
gagf e2fe|dedB G2AB|cBAG FDEF|G2[GB][GB] [G2B2]:|
